svgs/sharp-light/child-reaching.svg

<svg xmlns="http://www.w3.org/2000/svg" viewBox="0 0 384 512"><!--! Font Awesome Pro 6.6.0 by @fontawesome - https://fontawesome.com License - https://fontawesome.com/license (Commercial License) Copyright 2024 Fonticons, Inc. --><path d="M224 64a32 32 0 1 0 -64 0 32 32 0 1 0 64 0zm-96 0a64 64 0 1 1 128 0A64 64 0 1 1 128 64zM112 192l-9.5 0-9.2 0-4.6-8L42.2 104l-8-13.8L61.8 74.1l8 13.8 41.9 72 159.2 0 43.3-72.2L322.5 74 350 90.5l-8.2 13.7-48 80-4.7 7.8-9.1 0-8 0 0 304 0 16-32 0 0-16 0-112-96 0 0 112 0 16-32 0 0-16 0-304zm32 0l0 160 96 0 0-160-96 0z"/></svg>

<svg xmlns="http://www.w3.org/2000/svg" viewBox="0 0 384 512"><!--! Font Awesome Pro 6.4.0 by @fontawesome - https://fontawesome.com License - https://fontawesome.com/license (Commercial License) Copyright 2023 Fonticons, Inc. --><path d="M224 64a32 32 0 1 0 -64 0 32 32 0 1 0 64 0zm-96 0a64 64 0 1 1 128 0A64 64 0 1 1 128 64zM112 192h-9.5H93.3l-4.6-8L42.2 104l-8-13.8L61.8 74.1l8 13.8 41.9 72H270.9l43.3-72.2L322.5 74 350 90.5l-8.2 13.7-48 80-4.7 7.8H280h-8V496v16H240V496 384H144V496v16H112V496 192zm32 0V352h96V192H144z"/></svg>
